X: 9
T: Ave regina celorum
N: Derived from Gas2029-Ave_regina_celorum.krn
C: Gaspar van Weerbeke
%%abc-version 2.0
%%abcx-abcm2ps-target-version 5.9.1 (29 Sep 2008)
%%abc-creator hum2abc beta
%%abcx-conversion-date 2019/02/16 20:36:45
%%abc-edited-by Jesse Rodin
%%abc-edited-by Jesse Rodin; Chris Gage 06-04-2015
%%abcx-initial-encoding-date 2015/06/16/
%%humdrum-veritas 3210389608
%%humdrum-veritas-data 3505472882
%%linebreak <none>
%%barnumbers 0
L: 1/4
M: 3/1
Q: 1/2=120
%%staves [1 2 3 4]
V: 1 clef=treble
V: 2 clef=treble-8
V: 3 clef=treble-8
V: 4 clef=bass
K: F
[V:1] F12- | 
[V:2] F4F3GA2B2- | 
[V:3] z12 | 
[V:4] z12 | 
[V:1] F12 | 
[V:2] Bcd4cBA2B2 | 
[V:3] z12 | 
[V:4] z12 | 
[V:1] E6C2D4 | 
[V:2] c2C3DE2F2G2 | 
[V:3] z12 | 
[V:4] z12 | 
[V:1] CB,A,G,F,2F4E2 | 
[V:2] A2c4A2G4 | 
[V:3] z12 | 
[V:4] z12 | 
[V:1] F8z4 | 
[V:2] F8z4 | 
[V:3] F12- | 
[V:4] F,,4F,,3G,,A,,2B,,2- | 
[V:1] z12 | 
[V:2] z12 | 
[V:3] F12 | 
[V:4] B,,A,,B,,A,,F,,2B,,2A,,2B,,2 | 
[V:1] z12 | 
[V:2] z12 | 
[V:3] E8D4 | 
[V:4] C,3B,,G,,2C,4B,,2 | 
[V:1] z12 | 
[V:2] z12 | 
[V:3] E3CDCF4E2 | 
[V:4] C,3A,,B,,C,A,,2G,,4 | 
[V:1] A,4A,3B,C2D2 | 
[V:2] C6D2C2F2- | 
[V:3] F12 | 
[V:4] F,,4F,,3G,,A,,2B,,2 | 
[V:1] C2F4EDC4 | 
[V:2] FGA2D2B,2C4 | 
[V:3] F12 | 
[V:4] A,,2F,,2B,,4A,,4 | 
[V:1] B,4B,3CD2_E2 | 
[V:2] D6E2D2G2- | 
[V:3] G12- | 
[V:4] G,,4G,,3A,,B,,2C,2 | 
[V:1] D2G4FED4 | 
[V:2] GAB2c2C2D4 | 
[V:3] G12 | 
[V:4] B,,2G,,2C,4B,,4 | 
[V:1] C4C3DE2F2 | 
[V:2] E6F2E2D2 | 
[V:3] A12- | 
[V:4] A,,4A,,3B,,C,2D,2 | 
[V:1] E2C2F2EFGFED | 
[V:2] E2A3Bc2d2D2 | 
[V:3] A8G4 | 
[V:4] C,2A,,2D,2C,2B,,4 | 
[V:1] C4E2F2G4 | 
[V:2] E4C2D2z4 | 
[V:3] A8B4 | 
[V:4] A,,4z4G,,4 | 
[V:1] E2A2G2F4E2 | 
[V:2] A4B2c2d2c2 | 
[V:3] c4B2A2G4 | 
[V:4] A,,2F,,2G,,2A,,2B,,2C,2 | 
[V:1] F4z4z4 | 
[V:2] A6d2B2c2 | 
[V:3] F8z4 | 
[V:4] D,6B,,2_E,3D, | 
[V:1] F8E4 | 
[V:2] d3cB2F2G2A2 | 
[V:3] z12 | 
[V:4] B,,3A,,B,,2D,2C,4 | 
[V:1] D4C8 | 
[V:2] B3cA4A3B | 
[V:3] F12- | 
[V:4] B,,4F,,8- | 
[V:1] A,4G,4z2G2- | 
[V:2] c2d4c4=B2 | 
[V:3] F4E4D4 | 
[V:4] F,,4z4G,,4 | 
[V:1] G2E4C2D2E2 | 
[V:2] c4G2A2G4 | 
[V:3] E2G4F4E2 | 
[V:4] C,6A,,2B,,2C,2 | 
[V:1] A,3B,A,2D4C2 | 
[V:2] z4z4C4 | 
[V:3] F4F4G4 | 
[V:4] D,6F,2E,4 | 
[V:1] D3EFEFEC2F2 | 
[V:2] F4z4c4- | 
[V:3] A8A4 | 
[V:4] D,3C,D,C,D,C,A,,2F,,2 | 
[V:1] E2DE2FG2C4 | 
[V:2] c2dc2B/A/G2F4 | 
[V:3] G8A4 | 
[V:4] C,2B,,C,2D,E,2F,3E, | 
[V:1] F2G2A6GF | 
[V:2] z4C2F4ED | 
[V:3] B4c8 | 
[V:4] D,C,B,,2A,,2F,,2z4 | 
[V:1] E2G4F4E2 | 
[V:2] C2E4F2C2c2- | 
[V:3] c2B2c2A2G4 | 
[V:4] z4z2F,,2C,4 | 
[V:1] F8z4 | 
[V:2] c2d2c2A2G4 | 
[V:3] F4z4z4 | 
[V:4] F,,2B,,2A,,2G,,F,,E,,4 | 
[V:1] C4D4E3F | 
[V:2] A3GFED2C3D | 
[V:3] F8G4- | 
[V:4] F,,4z4z4 | 
[V:1] G4F3GA4 | 
[V:2] E4z4C4 | 
[V:3] G4A8 | 
[V:4] E,,4F,,8 | 
[V:1] G3FD4C2F2 | 
[V:2] B,4D3EF3E | 
[V:3] B8A4 | 
[V:4] G,,4B,,4F,,4 | 
[V:1] E2A4F2G4 | 
[V:2] C2A,2z2C2D4 | 
[V:3] G2c4A4G2 | 
[V:4] C,8B,,4 | 
[V:1] C4C4A,3B, | 
[V:2] E8F3G | 
[V:3] A8z4 | 
[V:4] A,,8D,3C, | 
[V:1] C2D2E2C2F4 | 
[V:2] A2B2G2c4=B2 | 
[V:3] z12 | 
[V:4] A,,2G,,2C,4D,4 | 
[V:1] E3FG2A2D3E | 
[V:2] c4z4z4 | 
[V:3] c8B4- | 
[V:4] C,3D,E,2A,,2B,,3C, | 
[V:1] F2G2C3DE2F2 | 
[V:2] z12 | 
[V:3] B4A8 | 
[V:4] D,2G,,2A,,3B,,C,2F,,2 | 
[V:1] B,3CD2E2A,3B, | 
[V:2] z4z4c3B | 
[V:3] G8F4- | 
[V:4] G,,3A,,B,,2C,2F,,3G,, | 
[V:1] CDE2C2F4E2 | 
[V:2] A2G2A2c3Bc2 | 
[V:3] F2E2F4G4 | 
[V:4] A,,B,,C,2A,,2F,,2C,4 | 
[V:1] F12 | 
[V:2] A4B2d3cB2 | 
[V:3] F12- | 
[V:4] D,4B,,8 | 
[V:1] z12 | 
[V:2] A8c4 | 
[V:3] F12 | 
[V:4] F,,12 | 
[V:1] G4F2G2E2D2 | 
[V:2] B2c2A2G2c2B2 | 
[V:3] z12 | 
[V:4] z12 | 
[V:1] z2G2F2D3CA,2- | 
[V:2] G3FD3EF3E | 
[V:3] z12 | 
[V:4] z12 | 
[V:1] A,B,C3B,G,3A,B,C | 
[V:2] C4C4z4 | 
[V:3] z12 | 
[V:4] z4z4G,,4- | 
[V:1] D2E2D2C4=B,2 | 
[V:2] G6E2D4 | 
[V:3] z12 | 
[V:4] G,,12 | 
[V:1] C4G,2A,2B,3G, | 
[V:2] C4D2E2F3D | 
[V:3] z12 | 
[V:4] A,,4B,,2C,2D,3B,, | 
[V:1] A,2B,2C3A,B,2C2 | 
[V:2] E2F2G3EF2G2 | 
[V:3] z12 | 
[V:4] C,2D,2E,3C,D,2E,2 | 
[V:1] D2F2E2D4^C2 | 
[V:2] A3Bc2A4G2 | 
[V:3] z12 | 
[V:4] F,3E,C,2D,2E,4 | 
[V:1] D4C2D3EF2 | 
[V:2] A4A4B2A2 | 
[V:3] F8D4 | 
[V:4] D,4z4z4 | 
[V:1] G2E2D4z4 | 
[V:2] G2c4=B2c4 | 
[V:3] E2C2D4C4 | 
[V:4] z4G,,4A,,2C,2- | 
[V:1] z4C4D2F2- | 
[V:2] A2B2G4z4 | 
[V:3] D2F4E2F4 | 
[V:4] C,2B,,2C,4F,,4 | 
[V:1] F2E2F4z2G2 | 
[V:2] C4D2F4E2 | 
[V:3] G4F4z4 | 
[V:4] z4z4C,4 | 
[V:1] A4B4A2F2 | 
[V:2] F2A2G4c4 | 
[V:3] z2F2G4A4 | 
[V:4] F,,2F,4E,2F,4 | 
[V:1] GFEDC2F4E2 | 
[V:2] z4FGABc4 | 
[V:3] B4A2F2G4 | 
[V:4] B,,4z2D,2C,4 | 
[V:1] D2C4B,A,B,3C | 
[V:2] z4C4D2E2 | 
[V:3] F2E2F2A2G4 | 
[V:4] F,,2A,,3G,,F,,4E,,2 | 
[V:1] A,12 ||  
[V:2] C12 ||  
[V:3] F12 ||  
[V:4] F,,12 ||  
[V:1]  [K:F] [K:clef=treble][M:2/1]F8- | 
[V:2]  [K:F] [K:clef=treble-8][M:2/1]z8 | 
[V:3]  [K:F] [K:clef=treble-8][M:2/1]F8 | 
[V:4]  [K:F] [K:clef=bass][M:2/1]z8 | 
[V:1] F8 | 
[V:2] z4z4 | 
[V:3] F4A4- | 
[V:4] z4z4 | 
[V:1] E6C2 | 
[V:2] z8 | 
[V:3] A2B2c4- | 
[V:4] z8 | 
[V:1] D8 | 
[V:2] z8 | 
[V:3] c4=B4 | 
[V:4] z8 | 
[V:1] C3B,A,G,F,2 | 
[V:2] z8 | 
[V:3] c8 | 
[V:4] z8 | 
[V:1] E,2F,2G,4 | 
[V:2] z8 | 
[V:3] c4B4 | 
[V:4] z8 | 
[V:1] F,4z2F2- | 
[V:2] z8 | 
[V:3] A6F2 | 
[V:4] z8 | 
[V:1] F2EDEDCB, | 
[V:2] z8 | 
[V:3] G8 | 
[V:4] z8 | 
[V:1] A,2B,3A,C2- | 
[V:2] z8 | 
[V:3] F2G3FA2- | 
[V:4] z8 | 
[V:1] C2A,2G,4 | 
[V:2] z8 | 
[V:3] A2F4E2 | 
[V:4] z8 | 
[V:1] F,8 | 
[V:2] F8- | 
[V:3] F8 | 
[V:4] F,,8 | 
[V:1] z8 | 
[V:2] F8 | 
[V:3] z8 | 
[V:4] F,,4A,,4- | 
[V:1] z8 | 
[V:2] E6C2 | 
[V:3] z8 | 
[V:4] A,,2B,,2C,4- | 
[V:1] z8 | 
[V:2] D8 | 
[V:3] z8 | 
[V:4] C,4=B,,4 | 
[V:1] z8 | 
[V:2] C2c3BA2- | 
[V:3] z8 | 
[V:4] C,8- | 
[V:1] z8 | 
[V:2] A2GFGFED | 
[V:3] z8 | 
[V:4] C,4B,,4 | 
[V:1] z4A,4 | 
[V:2] C4F4- | 
[V:3] z8 | 
[V:4] A,,6F,,2 | 
[V:1] B,6G,2 | 
[V:2] F4E4 | 
[V:3] z8 | 
[V:4] G,,8 | 
[V:1] A,2B,2C2D2 | 
[V:2] F2c4B2 | 
[V:3] z8 | 
[V:4] F,,3G,,A,,2B,,2 | 
[V:1] E2F4E2 | 
[V:2] A2F2G4 | 
[V:3] z8 | 
[V:4] C,2D,2C,4 | 
[V:1] F6ED | 
[V:2] F8 | 
[V:3] F8- | 
[V:4] F,,8- | 
[V:1] C8 | 
[V:2] A8 | 
[V:3] F8 | 
[V:4] F,,8 | 
[V:1] D6C2 | 
[V:2] D3EF4 | 
[V:3] F4D4- | 
[V:4] B,,8 | 
[V:1] B,4A,4 | 
[V:2] G4C4 | 
[V:3] D4F4 | 
[V:4] G,,4F,,4 | 
[V:1] G,2C4B,A, | 
[V:2] z2C2E2F2 | 
[V:3] E4C4 | 
[V:4] C,4A,,4 | 
[V:1] B,4A,2B,2- | 
[V:2] G4A2G2 | 
[V:3] D8 | 
[V:4] G,,4F,,2G,,2- | 
[V:1] B,CD3EC2- | 
[V:2] D3EF4 | 
[V:3] B,4C4 | 
[V:4] G,,2B,,2A,,4 | 
[V:1] C2=B,2=B,2A,=B, | 
[V:2] G8 | 
[V:3] D8 | 
[V:4] G,,8 | 
[V:1] C6B,A, | 
[V:2] E4C4 | 
[V:3] C8- | 
[V:4] A,,6G,,F,, | 
[V:1] G,2F,2G,4 | 
[V:2] c4B2G2 | 
[V:3] C8 | 
[V:4] E,,2F,,4E,,2 | 
[V:1] C4B,4 | 
[V:2] A4B2G2 | 
[V:3] C4D4- | 
[V:4] F,,2A,,2G,,4 | 
[V:1] A,2B,2D4 | 
[V:2] A2G2B4 | 
[V:3] D4D4 | 
[V:4] F,,2G,,4B,,2 | 
[V:1] C4B,2C2 | 
[V:2] c2A2B2A2 | 
[V:3] E8 | 
[V:4] A,,4G,,2A,,2- | 
[V:1] _E4D4 | 
[V:2] c4d2B2 | 
[V:3] E4F4- | 
[V:4] A,,2C,2B,,4 | 
[V:1] C2D2F4 | 
[V:2] c2B2d4 | 
[V:3] F4F4 | 
[V:4] A,,2B,,4D,2 | 
[V:1] E4D2E2 | 
[V:2] e2c2d2c2- | 
[V:3] G8 | 
[V:4] C,4B,,2C,2- | 
[V:1] G4F2A2- | 
[V:2] c2z2F3G | 
[V:3] G4A4 | 
[V:4] C,2E,2D,2F,2- | 
[V:1] A2GFE4 | 
[V:2] ABc4c2 | 
[V:3] F2A2G4 | 
[V:4] F,2F,,2C,4 | 
[V:1] F8- | 
[V:2] A8 | 
[V:3] F8 | 
[V:4] F,,8 | 
[V:1] F8 | 
[V:2] F8 | 
[V:3] z4z4 | 
[V:4] F,,3G,,A,,2B,,2 | 
[V:1] z8 | 
[V:2] G8 | 
[V:3] z8 | 
[V:4] B,,2C,2B,,2C,2- | 
[V:1] z8 | 
[V:2] A8 | 
[V:3] z8 | 
[V:4] C,2D,2C,2D,2- | 
[V:1] z8 | 
[V:2] B8 | 
[V:3] z8 | 
[V:4] D,C,B,,A,,G,,4 | 
[V:1] z8 | 
[V:2] A4F2B2- | 
[V:3] z8 | 
[V:4] F,,2F,4G,2- | 
[V:1] z8 | 
[V:2] B2A2G4 | 
[V:3] z8 | 
[V:4] G,2F,4E,2 | 
[V:1] F8 | 
[V:2] F3GA2B2- | 
[V:3] z8 | 
[V:4] F,4z4 | 
[V:1] G8 | 
[V:2] B2c2B2c2- | 
[V:3] z8 | 
[V:4] z8 | 
[V:1] A8 | 
[V:2] c2d2c2d2- | 
[V:3] z8 | 
[V:4] z4F,,4 | 
[V:1] B8 | 
[V:2] dcBAG4 | 
[V:3] z8 | 
[V:4] G,,8 | 
[V:1] A4F4 | 
[V:2] F4z4 | 
[V:3] z8 | 
[V:4] A,,8 | 
[V:1] G3F/E/D4 | 
[V:2] z8 | 
[V:3] z8 | 
[V:4] B,,8 | 
[V:1] C2D2C2D2- | 
[V:2] z8 | 
[V:3] F8 | 
[V:4] A,,2F,,2A,,2B,,2 | 
[V:1] D2E2D2E2- | 
[V:2] z8 | 
[V:3] G8 | 
[V:4] G,,4z4 | 
[V:1] E2F2E2F2- | 
[V:2] z8 | 
[V:3] A8 | 
[V:4] z8 | 
[V:1] F2G3FED | 
[V:2] z8 | 
[V:3] B8 | 
[V:4] z4_E,,4 | 
[V:1] C4C2F2- | 
[V:2] z8 | 
[V:3] A4c2B2 | 
[V:4] F,,3G,,A,,2B,,2 | 
[V:1] F2E2F2G2- | 
[V:2] c4A2G2- | 
[V:3] G4F2B2- | 
[V:4] C,4D,2E,2- | 
[V:1] G2F4E2 | 
[V:2] G2c4c2 | 
[V:3] B2A2G4 | 
[V:4] E,2F,2C,4 | 
[V:1] F6ED | 
[V:2] A4A2B2 | 
[V:3] F8- | 
[V:4] F,,8 | 
[V:1] C4z2B,2- | 
[V:2] c4d4 | 
[V:3] F8- | 
[V:4] A,,4B,,4- | 
[V:1] B,2C2D4 | 
[V:2] d2c2B4 | 
[V:3] F8- | 
[V:4] B,,2A,,2B,,4 | 
[V:1] C8 ||  
[V:2] A8 ||  
[V:3] F8 ||  
[V:4] F,,8 ||  
[V:1]  [K:F] [K:clef=treble][M:2/1]z8 | 
[V:2]  [K:F] [K:clef=treble-8][M:2/1]z8 | 
[V:3]  [K:F] [K:clef=treble-8][M:2/1]z8 | 
[V:4]  [K:F] [K:clef=bass][M:2/1]F,,8 | 
[V:1] z8 | 
[V:2] z8 | 
[V:3] z8 | 
[V:4] G,,8 | 
[V:1] z8 | 
[V:2] F8 | 
[V:3] z4z4 | 
[V:4] A,,4B,,4- | 
[V:1] z8 | 
[V:2] G8 | 
[V:3] z8 | 
[V:4] B,,4C,4- | 
[V:1] C8 | 
[V:2] A8 | 
[V:3] z8 | 
[V:4] C,2B,,2A,,4- | 
[V:1] D8 | 
[V:2] B8 | 
[V:3] z8 | 
[V:4] A,,4G,,4 | 
[V:1] C4C2D2- | 
[V:2] A4A2B2- | 
[V:3] z8 | 
[V:4] A,,4z4 | 
[V:1] DCB,A,B,4 | 
[V:2] BAGFG4 | 
[V:3] z8 | 
[V:4] z8 | 
[V:1] A,4z4 | 
[V:2] A4z4 | 
[V:3] F8- | 
[V:4] F,,3G,,A,,2B,,2 | 
[V:1] z8 | 
[V:2] z8 | 
[V:3] F8 | 
[V:4] F,,2B,,3C,D,2 | 
[V:1] z8 | 
[V:2] z8 | 
[V:3] G8- | 
[V:4] C,2B,,2G,,2C,2- | 
[V:1] z8 | 
[V:2] z8 | 
[V:3] G8 | 
[V:4] C,2B,,A,,G,,4 | 
[V:1] C3DE2F2 | 
[V:2] z8 | 
[V:3] A8- | 
[V:4] F,,4z4 | 
[V:1] C2F3GA2 | 
[V:2] z8 | 
[V:3] A8 | 
[V:4] z4z4 | 
[V:1] G3FD2G2- | 
[V:2] z8 | 
[V:3] B8- | 
[V:4] z8 | 
[V:1] G2FED4 | 
[V:2] z4G4 | 
[V:3] B8 | 
[V:4] z4G,,4 | 
[V:1] C4z4 | 
[V:2] E3DE2F2- | 
[V:3] A4A2B2- | 
[V:4] A,,3B,,C,2D,2- | 
[V:1] z4D4 | 
[V:2] FEDCD4 | 
[V:3] BAGFG4 | 
[V:4] D,C,B,,A,,B,,4 | 
[V:1] C6D2 | 
[V:2] E4C4 | 
[V:3] A8 | 
[V:4] A,,6B,,2 | 
[V:1] E2F2E2F2- | 
[V:2] z4z4 | 
[V:3] A4A4- | 
[V:4] C,2D,2C,2D,2- | 
[V:1] F2D4^C2 | 
[V:2] z4C4 | 
[V:3] A4G4 | 
[V:4] D,2F,2E,4 | 
[V:1] D4E3F | 
[V:2] F4A3B | 
[V:3] A8- | 
[V:4] D,4C,3D, | 
[V:1] E2F4ED | 
[V:2] cBAGF3G | 
[V:3] A8 | 
[V:4] C,2D,4C,B,, | 
[V:1] C3DE2C2 | 
[V:2] A3FG2A2- | 
[V:3] c8 | 
[V:4] A,,2F,2E,2F,2 | 
[V:1] G2A4GF | 
[V:2] AGF2A3B | 
[V:3] c4c4- | 
[V:4] E,2F,4E,D, | 
[V:1] E3CF4 | 
[V:2] c2G4F2 | 
[V:3] c4B4 | 
[V:4] C,2E,2D,4 | 
[V:1] E8 | 
[V:2] G4E4 | 
[V:3] c4c4- | 
[V:4] C,8 | 
[V:1] z4D4- | 
[V:2] F4G4- | 
[V:3] c4B4- | 
[V:4] A,,4G,,4- | 
[V:1] D2E2F4 | 
[V:2] G4C4- | 
[V:3] B4A4 | 
[V:4] G,,4F,,4 | 
[V:1] G6E2 | 
[V:2] C2D2E4 | 
[V:3] G8 | 
[V:4] C,8 | 
[V:1] D4C4 | 
[V:2] F4E4- | 
[V:3] F4A4- | 
[V:4] D,4A,,4 | 
[V:1] D6B,2 | 
[V:2] E4D4 | 
[V:3] A4G4 | 
[V:4] B,,8 | 
[V:1] !fermata!C8 | 
[V:2] !fermata!E8 | 
[V:3] !fermata!A8 | 
[V:4] !fermata!A,,8 | 
[V:1] [M:3/1]C8B,4 | 
[V:2] [M:3/1]E8D4 | 
[V:3] [M:3/1]z12 | 
[V:4] [M:3/1]z12 | 
[V:1] C4D6C2 | 
[V:2] E4F8 | 
[V:3] z12 | 
[V:4] z12 | 
[V:1] C8=B,4 | 
[V:2] E4D8 | 
[V:3] z12 | 
[V:4] z12 | 
[V:1] C8E4 | 
[V:2] C8z4 | 
[V:3] A8G4 | 
[V:4] F,,8C,4 | 
[V:1] F4G6F2 | 
[V:2] c4d8 | 
[V:3] A4B8 | 
[V:4] A,,4G,,8 | 
[V:1] F8E4 | 
[V:2] c4d4c4 | 
[V:3] A4G8 | 
[V:4] A,,4B,,4C,4 | 
[V:1] F12 | 
[V:2] A8z4 | 
[V:3] F12 | 
[V:4] D,8B,,4 | 
[V:1] z12 | 
[V:2] z12 | 
[V:3] G8F4 | 
[V:4] _E,8D,4 | 
[V:1] G8F4 | 
[V:2] z12 | 
[V:3] E4D8 | 
[V:4] C,8B,,4 | 
[V:1] E4D8 | 
[V:2] c8B4 | 
[V:3] z12 | 
[V:4] C,4G,,8 | 
[V:1] C8z4 | 
[V:2] c8G4 | 
[V:3] C6D2E4 | 
[V:4] z12 | 
[V:1] C6D2E4 | 
[V:2] A6G2E4 | 
[V:3] F8G4 | 
[V:4] F,,8C,4 | 
[V:1] F8G4 | 
[V:2] C6D2E4 | 
[V:3] A8G4 | 
[V:4] A,,4F,,4C,4 | 
[V:1] A8G4 | 
[V:2] F8C4 | 
[V:3] F4c8 | 
[V:4] F,,8z4 | 
[V:1] F4G6F2 | 
[V:2] D4_E6C2 | 
[V:3] A4B6c2 | 
[V:4] F,,4_E,,8 | 
[V:1] F8E4 | 
[V:2] C8c4 | 
[V:3] A4G8 | 
[V:4] F,,4C,8 | 
[V:1] F12- | 
[V:2] A6B2d4 | 
[V:3] F12- | 
[V:4] F,,12- | 
[V:1] F12 |]  
[V:2] c12 |]  
[V:3] F12 |]  
[V:4] F,,12 |]  



